;Sliced by ideaMaker 4.0.0.4755, 2021-05-19 10:21:59 UTC-0500
;Dimension: 305.000 305.000 305.000 0.400
;Plate Shape: 0
;Origin Center: 0
;Extruder Offset #1: 25.000 0.000
;Filament Diameter #1: 1.750
;Filament Diameter #2: 1.750
;Filament Compensation #1: 94.00
;Filament Compensation #2: 94.00
;Filament Density #1: 1240.00
;Filament Density #2: 1240.00
;Bounding Box: 53.397 251.605 88.352 216.650 0.000 15.320
;Model Gap: 0.200
M221 T0 S94.00
M140 S60.00
M104 T0 S205.00
M109 T0 S205.00
T0
M190 S60.00
G21
G90
M82
M107
G28 X0 Y0
G28 Z0
G1 Z15.0 F300
G92 E0
G1 F140 E29
G1 X20 Y0 F140 E30
G92 E0
G1 F6000.0
M117 Printing...
M1001
M106 S0
;LAYER:-2
;Z:0.500
;HEIGHT:0.500
G0 F6000 X56.263 Y89.452
G0 F300 Z0.500
;TYPE:RAFT
;WIDTH:0.800
G1 F480 X56.877 Y89.148 E0.1139
G1 X57.542 Y88.925 E0.2306
G1 X58.156 Y88.803 E0.3347
G1 X58.868 Y88.752 E0.4534
G1 X146.739 Y88.754 E15.0664
G1 X147.448 Y88.799 E15.1845
G1 X147.970 Y88.893 E15.2728
G1 X148.466 Y89.038 E15.3587
G1 X149.289 Y89.356 E15.5054
G1 X149.781 Y89.457 E15.5889
G1 X150.276 Y89.484 E15.6714
G1 X150.778 Y89.438 E15.7552
G1 X151.447 Y89.251 E15.8707
G1 X151.686 Y89.164 E15.9130
G1 X152.191 Y89.031 E15.9999
G1 X152.552 Y88.975 E16.0606
G1 X153.239 Y88.928 E16.1751
G1 X246.126 Y88.928 E31.6223
G1 X246.842 Y88.979 E31.7417
G1 X247.058 Y89.010 E31.7780
G1 X247.604 Y89.135 E31.8711
G1 X247.938 Y89.245 E31.9296
G1 X248.482 Y89.486 E32.0286
G1 X248.929 Y89.745 E32.1145
G1 X249.458 Y90.142 E32.2245
G1 X249.760 Y90.425 E32.2933
G1 X250.182 Y90.911 E32.4003
G1 X250.478 Y91.351 E32.4885
G1 X250.671 Y91.707 E32.5559
G1 X250.969 Y92.438 E32.6871
G1 X251.099 Y92.929 E32.7716
G1 X251.158 Y93.301 E32.8342
G1 X251.205 Y93.999 E32.9506
G1 X251.205 Y211.167 E52.4357
G1 X251.147 Y211.954 E52.5669
G1 X251.047 Y212.465 E52.6535
G1 X250.838 Y213.111 E52.7664
G1 X250.595 Y213.623 E52.8607
G1 X250.301 Y214.102 E52.9542
G1 X249.976 Y214.520 E53.0422
G1 X249.746 Y214.767 E53.0983
G1 X249.238 Y215.213 E53.2108
G1 X248.803 Y215.510 E53.2983
G1 X248.248 Y215.801 E53.4026
G1 X247.872 Y215.955 E53.4701
G1 X247.352 Y216.110 E53.5604
G1 X246.937 Y216.191 E53.6307
G1 X246.139 Y216.250 E53.7638
G1 X153.216 Y216.247 E69.2169
G1 X152.540 Y216.199 E69.3296
G1 X151.831 Y216.054 E69.4500
G1 X151.326 Y215.885 E69.5385
G1 X150.849 Y215.666 E69.6258
G1 X150.384 Y215.386 E69.7161
G1 X150.065 Y215.150 E69.7821
G1 X149.417 Y214.611 E69.9222
G1 X148.982 Y214.361 E70.0057
G1 X148.520 Y214.180 E70.0882
G1 X148.029 Y214.065 E70.1721
G1 X147.319 Y214.032 E70.2903
G1 X146.742 Y214.065 E70.3864
G1 X58.717 Y214.059 E85.0250
G1 X58.159 Y214.018 E85.1180
G1 X57.792 Y213.955 E85.1800
G1 X57.425 Y213.862 E85.2429
G1 X56.819 Y213.648 E85.3498
G1 X56.344 Y213.415 E85.4378
G1 X55.797 Y213.056 E85.5466
G1 X55.503 Y212.811 E85.6102
G1 X55.088 Y212.396 E85.7078
G1 X54.596 Y211.754 E85.8423
G1 X54.312 Y211.256 E85.9377
G1 X54.109 Y210.776 E86.0243
G1 X53.909 Y210.076 E86.1454
G1 X53.818 Y209.464 E86.2483
G1 X53.797 Y209.011 E86.3237
G1 X53.798 Y200.042 E87.8153
G1 X53.823 Y199.550 E87.8972
G1 X53.904 Y199.027 E87.9852
G1 X53.991 Y198.671 E88.0462
G1 X54.244 Y197.969 E88.1703
G1 X54.486 Y197.502 E88.2577
G1 X54.791 Y197.040 E88.3498
G1 X55.095 Y196.670 E88.4294
G1 X55.374 Y196.278 E88.5094
G1 X55.599 Y195.837 E88.5918
G1 X55.759 Y195.367 E88.6743
G1 X55.849 Y194.878 E88.7570
G1 X55.866 Y194.381 E88.8397
G1 X55.810 Y193.888 E88.9222
G1 X55.683 Y193.409 E89.0047
G1 X55.486 Y192.948 E89.0880
G1 X55.141 Y192.414 E89.1937
G1 X54.597 Y191.706 E89.3422
G1 X54.312 Y191.206 E89.4379
G1 X54.165 Y190.879 E89.4976
G1 X53.908 Y190.022 E89.6464
G1 X53.832 Y189.552 E89.7255
G1 X53.797 Y188.981 E89.8207
G1 X53.798 Y93.829 E105.6445
G1 X53.827 Y93.247 E105.7414
G1 X53.937 Y92.614 E105.8483
G1 X54.133 Y91.976 E105.9593
G1 X54.292 Y91.598 E106.0275
G1 X54.529 Y91.161 E106.1101
G1 X54.985 Y90.530 E106.2396
G1 X55.327 Y90.167 E106.3225
G1 X55.861 Y89.717 E106.4387
G1 X56.263 Y89.452 E106.5187
G0 F6000 X54.540 Y91.731
G1 F480 X54.540 Y191.029 E123.0321
G0 F6000 X54.540 Y198.006
G1 F480 X54.540 Y211.076 E125.2056
G0 F6000 X56.964 Y213.402
G1 F480 X56.964 Y89.416 E145.8246
G0 F6000 X59.388 Y89.033
G1 F480 X59.388 Y213.779 E166.5699
G0 F6000 X61.812 Y213.779
G1 F480 X61.812 Y89.033 E187.3153
G0 F6000 X64.236 Y89.033
G1 F480 X64.236 Y213.779 E208.0606
G0 F6000 X66.660 Y213.779
G1 F480 X66.660 Y89.033 E228.8059
G0 F6000 X69.084 Y89.033
G1 F480 X69.084 Y213.779 E249.5513
G0 F6000 X71.508 Y213.779
G1 F480 X71.508 Y89.033 E270.2966
G0 F6000 X73.932 Y89.033
G1 F480 X73.932 Y213.780 E291.0421
G0 F6000 X76.356 Y213.780
G1 F480 X76.356 Y89.033 E311.7877
G0 F6000 X78.780 Y89.033
G1 F480 X78.780 Y213.780 E332.5332
G0 F6000 X81.204 Y213.780
G1 F480 X81.204 Y89.033 E353.2787
G0 F6000 X83.628 Y89.033
G1 F480 X83.628 Y213.780 E374.0242
G0 F6000 X86.052 Y213.780
G1 F480 X86.052 Y89.033 E394.7697
G0 F6000 X88.476 Y89.033
G1 F480 X88.476 Y213.781 E415.5154
G0 F6000 X90.900 Y213.781
G1 F480 X90.900 Y89.033 E436.2610
G0 F6000 X93.324 Y89.033
G1 F480 X93.324 Y213.781 E457.0067
G0 F6000 X95.748 Y213.781
G1 F480 X95.748 Y89.033 E477.7524
G0 F6000 X98.172 Y89.033
G1 F480 X98.172 Y213.781 E498.4981
G0 F6000 X100.596 Y213.781
G1 F480 X100.596 Y89.033 E519.2438
G0 F6000 X103.020 Y89.034
G1 F480 X103.020 Y213.782 E539.9894
G0 F6000 X105.444 Y213.782
G1 F480 X105.444 Y89.034 E560.7351
G0 F6000 X107.868 Y89.034
G1 F480 X107.868 Y213.782 E581.4808
G0 F6000 X110.292 Y213.782
G1 F480 X110.292 Y89.034 E602.2265
G0 F6000 X112.716 Y89.034
G1 F480 X112.716 Y213.782 E622.9721
G0 F6000 X115.140 Y213.782
G1 F480 X115.140 Y89.034 E643.7178
G0 F6000 X117.564 Y89.034
G1 F480 X117.564 Y213.783 E664.4637
G0 F6000 X119.988 Y213.783
G1 F480 X119.988 Y89.034 E685.2095
G0 F6000 X122.412 Y89.034
G1 F480 X122.412 Y213.783 E705.9553
G0 F6000 X124.836 Y213.783
G1 F480 X124.836 Y89.034 E726.7012
G0 F6000 X127.260 Y89.034
G1 F480 X127.260 Y213.783 E747.4470
G0 F6000 X129.684 Y213.783
G1 F480 X129.684 Y89.034 E768.1929
G0 F6000 X132.108 Y89.034
G1 F480 X132.108 Y213.784 E788.9389
G0 F6000 X134.532 Y213.784
G1 F480 X134.532 Y89.034 E809.6849
G0 F6000 X136.956 Y89.034
G1 F480 X136.956 Y213.784 E830.4309
G0 F6000 X139.380 Y213.784
G1 F480 X139.380 Y89.034 E851.1769
G0 F6000 X141.804 Y89.034
G1 F480 X141.804 Y213.784 E871.9229
G0 F6000 X144.228 Y213.784
G1 F480 X144.228 Y89.034 E892.6689
G0 F6000 X146.652 Y89.034
G1 F480 X146.652 Y213.784 E913.4149
G0 F6000 X149.076 Y214.096
G1 F480 X149.076 Y89.575 E934.1229
G0 F6000 X151.500 Y89.521
G1 F480 X151.500 Y215.648 E955.0979
G0 F6000 X153.924 Y215.967
G1 F480 X153.924 Y89.208 E976.1780
G0 F6000 X156.348 Y89.208
G1 F480 X156.348 Y215.967 E997.2581
G0 F6000 X158.772 Y215.967
G1 F480 X158.772 Y89.208 E1018.3382
G0 F6000 X161.196 Y89.208
G1 F480 X161.196 Y215.967 E1039.4183
G0 F6000 X163.620 Y215.967
G1 F480 X163.620 Y89.208 E1060.4984
G0 F6000 X166.044 Y89.208
G1 F480 X166.044 Y215.967 E1081.5785
G0 F6000 X168.468 Y215.967
G1 F480 X168.468 Y89.208 E1102.6586
G0 F6000 X170.892 Y89.208
G1 F480 X170.892 Y215.967 E1123.7387
G0 F6000 X173.316 Y215.967
G1 F480 X173.316 Y89.208 E1144.8188
G0 F6000 X175.740 Y89.208
G1 F480 X175.740 Y215.967 E1165.8989
G0 F6000 X178.164 Y215.967
G1 F480 X178.164 Y89.208 E1186.9790
G0 F6000 X180.588 Y89.208
G1 F480 X180.588 Y215.967 E1208.0592
G0 F6000 X183.012 Y215.967
G1 F480 X183.012 Y89.208 E1229.1393
G0 F6000 X185.436 Y89.208
G1 F480 X185.436 Y215.968 E1250.2195
G0 F6000 X187.860 Y215.968
G1 F480 X187.860 Y89.208 E1271.2998
G0 F6000 X190.284 Y89.208
G1 F480 X190.284 Y215.968 E1292.3801
G0 F6000 X192.708 Y215.968
G1 F480 X192.708 Y89.208 E1313.4604
G0 F6000 X195.132 Y89.208
G1 F480 X195.132 Y215.968 E1334.5406
G0 F6000 X197.556 Y215.968
G1 F480 X197.556 Y89.208 E1355.6209
G0 F6000 X199.980 Y89.208
G1 F480 X199.980 Y215.968 E1376.7012
G0 F6000 X202.404 Y215.968
G1 F480 X202.404 Y89.208 E1397.7814
G0 F6000 X204.828 Y89.208
G1 F480 X204.828 Y215.968 E1418.8617
G0 F6000 X207.252 Y215.968
G1 F480 X207.252 Y89.208 E1439.9420
G0 F6000 X209.676 Y89.208
G1 F480 X209.676 Y215.968 E1461.0223
G0 F6000 X212.100 Y215.968
G1 F480 X212.100 Y89.208 E1482.1025
G0 F6000 X214.524 Y89.208
G1 F480 X214.524 Y215.968 E1503.1828
G0 F6000 X216.948 Y215.969
G1 F480 X216.948 Y89.208 E1524.2633
G0 F6000 X219.372 Y89.208
G1 F480 X219.372 Y215.969 E1545.3437
G0 F6000 X221.796 Y215.969
G1 F480 X221.796 Y89.208 E1566.4241
G0 F6000 X224.220 Y89.208
G1 F480 X224.220 Y215.969 E1587.5046
G0 F6000 X226.644 Y215.969
G1 F480 X226.644 Y89.208 E1608.5850
G0 F6000 X229.068 Y89.208
G1 F480 X229.068 Y215.969 E1629.6655
G0 F6000 X231.492 Y215.969
G1 F480 X231.492 Y89.208 E1650.7459
G0 F6000 X233.916 Y89.208
G1 F480 X233.916 Y215.969 E1671.8263
G0 F6000 X236.340 Y215.969
G1 F480 X236.340 Y89.208 E1692.9068
G0 F6000 X238.764 Y89.208
G1 F480 X238.764 Y215.969 E1713.9872
G0 F6000 X241.188 Y215.969
G1 F480 X241.188 Y89.208 E1735.0677
G0 F6000 X243.612 Y89.208
G1 F480 X243.612 Y215.969 E1756.1481
G0 F6000 X246.036 Y215.969
G1 F480 X246.036 Y89.208 E1777.2285
G0 F6000 X248.460 Y89.798
G1 F480 X248.460 Y215.375 E1798.1121
G0 F6000 X250.884 Y211.711
G1 F480 X250.884 Y93.407 E1817.7861
M106 S255
;LAYER:-2
;Z:1.000
;HEIGHT:0.500
G0 F300 Z1.000
G0 F6000 X251.158 Y93.301
;TYPE:RAFT
;WIDTH:0.800
G1 F960 X251.205 Y93.999 E1817.9025
G1 X251.205 Y211.167 E1837.3876
G1 X251.147 Y211.954 E1837.5188
G1 X251.047 Y212.465 E1837.6054
G1 X250.838 Y213.111 E1837.7183
G1 X250.595 Y213.623 E1837.8126
G1 X250.301 Y214.102 E1837.9060
G1 X249.976 Y214.520 E1837.9941
G1 X249.746 Y214.767 E1838.0502
G1 X249.238 Y215.213 E1838.1626
G1 X248.803 Y215.510 E1838.2502
G1 X248.248 Y215.801 E1838.3544
G1 X247.872 Y215.955 E1838.4220
G1 X247.352 Y216.110 E1838.5122
G1 X246.937 Y216.191 E1838.5826
G1 X246.139 Y216.250 E1838.7156
G1 X153.216 Y216.247 E1854.1688
G1 X152.540 Y216.199 E1854.2815
G1 X151.831 Y216.054 E1854.4018
G1 X151.326 Y215.885 E1854.4904
G1 X150.849 Y215.666 E1854.5777
G1 X150.384 Y215.386 E1854.6679
G1 X150.065 Y215.150 E1854.7339
G1 X149.417 Y214.611 E1854.8741
G1 X148.982 Y214.361 E1854.9575
G1 X148.520 Y214.180 E1855.0401
G1 X148.029 Y214.065 E1855.1239
G1 X147.319 Y214.032 E1855.2421
G1 X146.742 Y214.065 E1855.3382
G1 X58.717 Y214.059 E1869.9768
G1 X58.159 Y214.018 E1870.0699
G1 X57.792 Y213.955 E1870.1318
G1 X57.425 Y213.862 E1870.1948
G1 X56.819 Y213.648 E1870.3017
G1 X56.344 Y213.415 E1870.3896
G1 X55.797 Y213.056 E1870.4985
G1 X55.503 Y212.811 E1870.5621
G1 X55.088 Y212.396 E1870.6597
G1 X54.596 Y211.754 E1870.7942
G1 X54.312 Y211.256 E1870.8895
G1 X54.109 Y210.776 E1870.9762
G1 X53.909 Y210.076 E1871.0973
G1 X53.818 Y209.464 E1871.2002
G1 X53.797 Y209.011 E1871.2756
G1 X53.798 Y200.042 E1872.7671
G1 X53.823 Y199.550 E1872.8491
G1 X53.904 Y199.027 E1872.9371
G1 X53.991 Y198.671 E1872.9980
G1 X54.244 Y197.969 E1873.1221
G1 X54.486 Y197.502 E1873.2096
G1 X54.791 Y197.040 E1873.3017
G1 X55.095 Y196.670 E1873.3813
G1 X55.374 Y196.278 E1873.4613
G1 X55.599 Y195.837 E1873.5436
G1 X55.759 Y195.367 E1873.6262
G1 X55.849 Y194.878 E1873.7089
G1 X55.866 Y194.381 E1873.7916
G1 X55.810 Y193.888 E1873.8741
G1 X55.683 Y193.409 E1873.9565
G1 X55.486 Y192.948 E1874.0399
G1 X55.141 Y192.414 E1874.1456
G1 X54.597 Y191.706 E1874.2941
G1 X54.312 Y191.206 E1874.3898
G1 X54.165 Y190.879 E1874.4494
G1 X53.908 Y190.022 E1874.5982
G1 X53.832 Y189.552 E1874.6774
G1 X53.797 Y188.981 E1874.7725
G1 X53.798 Y93.829 E1890.5964
G1 X53.827 Y93.247 E1890.6933
G1 X53.937 Y92.614 E1890.8001
G1 X54.133 Y91.976 E1890.9111
G1 X54.292 Y91.598 E1890.9793
G1 X54.529 Y91.161 E1891.0620
G1 X54.985 Y90.530 E1891.1915
G1 X55.327 Y90.167 E1891.2744
G1 X55.861 Y89.717 E1891.3905
G1 X56.263 Y89.452 E1891.4706
G1 X56.877 Y89.148 E1891.5845
G1 X57.542 Y88.925 E1891.7012
G1 X58.156 Y88.803 E1891.8053
G1 X58.868 Y88.752 E1891.9240
G1 X146.739 Y88.754 E1906.5370
G1 X147.448 Y88.799 E1906.6551
G1 X147.970 Y88.893 E1906.7434
G1 X148.466 Y89.038 E1906.8293
G1 X149.289 Y89.356 E1906.9760
G1 X149.781 Y89.457 E1907.0595
G1 X150.276 Y89.484 E1907.1420
G1 X150.778 Y89.438 E1907.2258
G1 X151.447 Y89.251 E1907.3413
G1 X151.686 Y89.164 E1907.3836
G1 X152.191 Y89.031 E1907.4705
G1 X152.552 Y88.975 E1907.5312
G1 X153.239 Y88.928 E1907.6457
G1 X246.126 Y88.928 E1923.0929
G1 X246.842 Y88.979 E1923.2123
G1 X247.058 Y89.010 E1923.2486
G1 X247.604 Y89.135 E1923.3417
G1 X247.938 Y89.245 E1923.4002
G1 X248.482 Y89.486 E1923.4992
G1 X248.929 Y89.745 E1923.5851
G1 X249.458 Y90.142 E1923.6951
G1 X249.760 Y90.425 E1923.7639
G1 X250.182 Y90.911 E1923.8709
G1 X250.478 Y91.351 E1923.9591
G1 X250.671 Y91.707 E1924.0265
G1 X250.969 Y92.438 E1924.1577
G1 X251.099 Y92.929 E1924.2422
G1 X251.158 Y93.301 E1924.3048
G0 F6000 X250.884 Y93.407
G1 F960 X250.884 Y211.711 E1943.9789
G0 F6000 X248.460 Y215.375
G1 F960 X248.460 Y89.798 E1964.8624
G0 F6000 X246.036 Y89.208
G1 F960 X246.036 Y215.969 E1985.9429
G0 F6000 X243.612 Y215.969
G1 F960 X243.612 Y89.208 E2007.0233
G0 F6000 X241.188 Y89.208
G1 F960 X241.188 Y215.969 E2028.1037
G0 F6000 X238.764 Y215.969
G1 F960 X238.764 Y89.208 E2049.1842
G0 F6000 X236.340 Y89.208
G1 F960 X236.340 Y215.969 E2070.2646
G0 F6000 X233.916 Y215.969
G1 F960 X233.916 Y89.208 E2091.3451
G0 F6000 X231.492 Y89.208
G1 F960 X231.492 Y215.969 E2112.4255
G0 F6000 X229.068 Y215.969
G1 F960 X229.068 Y89.208 E2133.5059
G0 F6000 X226.644 Y89.208
G1 F960 X226.644 Y215.969 E2154.5864
G0 F6000 X224.220 Y215.969
G1 F960 X224.220 Y89.208 E2175.6668
G0 F6000 X221.796 Y89.208
G1 F960 X221.796 Y215.969 E2196.7473
G0 F6000 X219.372 Y215.969
G1 F960 X219.372 Y89.208 E2217.8277
G0 F6000 X216.948 Y89.208
G1 F960 X216.948 Y215.969 E2238.9081
G0 F6000 X214.524 Y215.968
G1 F960 X214.524 Y89.208 E2259.9884
G0 F6000 X212.100 Y89.208
G1 F960 X212.100 Y215.968 E2281.0687
G0 F6000 X209.676 Y215.968
G1 F960 X209.676 Y89.208 E2302.1490
G0 F6000 X207.252 Y89.208
G1 F960 X207.252 Y215.968 E2323.2292
G0 F6000 X204.828 Y215.968
G1 F960 X204.828 Y89.208 E2344.3095
G0 F6000 X202.404 Y89.208
G1 F960 X202.404 Y215.968 E2365.3898
G0 F6000 X199.980 Y215.968
G1 F960 X199.980 Y89.208 E2386.4701
G0 F6000 X197.556 Y89.208
G1 F960 X197.556 Y215.968 E2407.5503
G0 F6000 X195.132 Y215.968
G1 F960 X195.132 Y89.208 E2428.6306
G0 F6000 X192.708 Y89.208
G1 F960 X192.708 Y215.968 E2449.7109
G0 F6000 X190.284 Y215.968
G1 F960 X190.284 Y89.208 E2470.7911
G0 F6000 X187.860 Y89.208
G1 F960 X187.860 Y215.968 E2491.8714
G0 F6000 X185.436 Y215.968
G1 F960 X185.436 Y89.208 E2512.9517
G0 F6000 X183.012 Y89.208
G1 F960 X183.012 Y215.967 E2534.0318
G0 F6000 X180.588 Y215.967
G1 F960 X180.588 Y89.208 E2555.1119
G0 F6000 X178.164 Y89.208
G1 F960 X178.164 Y215.967 E2576.1920
G0 F6000 X175.740 Y215.967
G1 F960 X175.740 Y89.208 E2597.2721
G0 F6000 X173.316 Y89.208
G1 F960 X173.316 Y215.967 E2618.3522
G0 F6000 X170.892 Y215.967
G1 F960 X170.892 Y89.208 E2639.4323
G0 F6000 X168.468 Y89.208
G1 F960 X168.468 Y215.967 E2660.5124
G0 F6000 X166.044 Y215.967
G1 F960 X166.044 Y89.208 E2681.5926
G0 F6000 X163.620 Y89.208
G1 F960 X163.620 Y215.967 E2702.6727
G0 F6000 X161.196 Y215.967
G1 F960 X161.196 Y89.208 E2723.7528
G0 F6000 X158.772 Y89.208
G1 F960 X158.772 Y215.967 E2744.8329
G0 F6000 X156.348 Y215.967
G1 F960 X156.348 Y89.208 E2765.9130
G0 F6000 X153.924 Y89.208
G1 F960 X153.924 Y215.967 E2786.9931
G0 F6000 X151.500 Y215.648
G1 F960 X151.500 Y89.521 E2807.9681
G0 F6000 X149.076 Y89.575
G1 F960 X149.076 Y214.096 E2828.6760
G0 F6000 X146.652 Y213.784
G1 F960 X146.652 Y89.034 E2849.4220
G0 F6000 X144.228 Y89.034
G1 F960 X144.228 Y213.784 E2870.1680
G0 F6000 X141.804 Y213.784
G1 F960 X141.804 Y89.034 E2890.9140
G0 F6000 X139.380 Y89.034
G1 F960 X139.380 Y213.784 E2911.6601
G0 F6000 X136.956 Y213.784
G1 F960 X136.956 Y89.034 E2932.4061
G0 F6000 X134.532 Y89.034
G1 F960 X134.532 Y213.784 E2953.1521
G0 F6000 X132.108 Y213.784
G1 F960 X132.108 Y89.034 E2973.8981
G0 F6000 X129.684 Y89.034
G1 F960 X129.684 Y213.783 E2994.6439
G0 F6000 X127.260 Y213.783
G1 F960 X127.260 Y89.034 E3015.3898
G0 F6000 X124.836 Y89.034
G1 F960 X124.836 Y213.783 E3036.1356
G0 F6000 X122.412 Y213.783
G1 F960 X122.412 Y89.034 E3056.8815
